X: 1
T: Farewell To Milltown
R: reel
M: 4/4
L: 1/8
K: Gdor
|:DGGF G3A|BcAF GFDE|F2CF DFCF|DF3 FDCF|
DGGF G3A|BcAF GFDE|F2cF dFcF|AdcA G4:|
|:dggf g3a|bgaf gfde|f3g fede|fgaf gfdc|
dggf g3a|bgaf gfde|f3d edcB|AdcA G4:|


Tune 539	Setting 13492

